X: 1
T: Dinny Delaney's
R: reel
M: 4/4
L: 1/8
K: Ador
"Am"ABAG "Em"EFGE | "Am"AGAB cded | cAag "G"ef g2 | aged "Em"^cAdc |
"Am"ABAG "Em"EFGE |"Am" AGAB cded | cAag "G"efg2 | aged "Am"^cA A2 ||
"G"egdg egdc | BG G2 BcdB | "Em"e2ef "Am"eAab | aged ^cA A2 |
"Am"a2 e2 aged | ^cA A2 EFGE |"F" AGAB cdef | "Em"g2 ea ged^c ||
